flaticon/hand-gestures/tap-69.svg

<svg xmlns="http://www.w3.org/2000/svg" width="32" height="32" viewBox="0 0 24 24">
    <path d="M 20.539062 8.28125 C 19.9375 8.039062 19.335938 8.121094 18.816406 8.398438 C 18.777344 7.601562 18.296875 6.878906 17.539062 6.601562 C 16.976562 6.398438 16.335938 6.441406 15.816406 6.761719 C 15.777344 6.761719 15.777344 6.761719 15.777344 6.761719 L 16.578125 2.039062 C 16.65625 1.398438 16.496094 0.921875 16.175781 0.558594 C 15.816406 0.199219 15.296875 0 14.578125 0 C 13.535156 0 12.816406 0.679688 12.578125 1.921875 L 11.777344 7.921875 L 10.976562 2.480469 C 10.738281 0.679688 9.617188 0.398438 8.976562 0.398438 C 8.378906 0.398438 7.777344 0.640625 7.417969 1.039062 C 7.058594 1.398438 6.9375 1.878906 6.976562 2.441406 L 8.015625 11.320312 C 7.855469 11.078125 7.65625 10.878906 7.457031 10.640625 L 7.417969 10.601562 C 6.417969 9.398438 4.617188 8.878906 3.296875 9.359375 C 3.097656 9.398438 2.9375 9.519531 2.738281 9.640625 C 2.136719 10.039062 2.175781 10.558594 2.175781 10.71875 C 2.136719 10.960938 2.175781 11 2.738281 11.640625 C 3.417969 12.441406 4.898438 14.121094 5.816406 15.800781 C 5.855469 15.878906 6.976562 17.679688 8.21875 19 L 8.9375 21.199219 C 9.496094 22.878906 11.058594 24 12.816406 24 L 16.175781 24 C 17.898438 24 19.695312 22.558594 20.097656 20.878906 C 20.257812 20.238281 20.417969 20 20.496094 19.878906 C 20.898438 19.398438 21.378906 18.28125 21.378906 16.800781 L 21.378906 13.199219 C 21.378906 12.679688 21.417969 12.160156 21.578125 11.71875 L 21.816406 10.519531 C 21.9375 9.558594 21.417969 8.601562 20.539062 8.28125 Z M 20.976562 10.320312 L 20.738281 11.519531 C 20.617188 12.078125 20.578125 12.640625 20.578125 13.199219 L 20.578125 16.800781 C 20.578125 18.160156 20.097656 19.039062 19.855469 19.320312 C 19.808594 19.378906 19.757812 19.445312 19.710938 19.519531 C 19.585938 19.617188 19.460938 19.679688 19.296875 19.761719 C 19.136719 19.839844 18.976562 19.960938 18.777344 20.078125 C 18.578125 20.199219 18.535156 20.441406 18.65625 20.640625 C 18.738281 20.71875 18.855469 20.800781 18.976562 20.800781 C 19.058594 20.800781 19.136719 20.761719 19.21875 20.71875 C 19.246094 20.707031 19.273438 20.691406 19.296875 20.679688 C 19.015625 22.039062 17.535156 23.199219 16.175781 23.199219 L 12.855469 23.199219 C 11.417969 23.199219 10.175781 22.28125 9.738281 20.960938 L 9.382812 19.902344 C 9.570312 20.046875 9.742188 20.15625 9.9375 20.320312 C 10.015625 20.359375 10.097656 20.398438 10.175781 20.398438 C 10.296875 20.398438 10.417969 20.359375 10.457031 20.238281 C 10.617188 20.078125 10.578125 19.839844 10.417969 19.679688 C 10.175781 19.441406 9.9375 19.28125 9.695312 19.121094 C 9.417969 18.921875 9.144531 18.722656 8.867188 18.488281 C 7.675781 17.246094 6.535156 15.398438 6.535156 15.398438 C 5.578125 13.679688 4.058594 11.960938 3.335938 11.121094 C 3.21875 10.960938 3.058594 10.761719 2.976562 10.679688 C 2.976562 10.558594 2.976562 10.480469 3.175781 10.359375 C 3.335938 10.28125 3.457031 10.199219 3.578125 10.160156 C 4.578125 9.761719 6.015625 10.238281 6.816406 11.160156 L 6.855469 11.199219 C 7.136719 11.519531 7.457031 11.878906 7.777344 12.199219 L 8.230469 12.589844 L 8.617188 13.359375 C 8.695312 13.519531 8.816406 13.601562 8.976562 13.601562 C 9.058594 13.601562 9.097656 13.601562 9.136719 13.519531 C 9.296875 13.441406 9.378906 13.199219 9.296875 13 L 8.976562 12.359375 L 7.777344 2.359375 C 7.738281 2.078125 7.816406 1.800781 8.015625 1.601562 C 8.21875 1.359375 8.578125 1.199219 8.976562 1.199219 C 9.417969 1.199219 10.015625 1.359375 10.175781 2.601562 L 11.375 10.878906 C 11.417969 11.078125 11.578125 11.238281 11.777344 11.238281 C 11.976562 11.238281 12.136719 11.078125 12.175781 10.878906 L 13.375 2.078125 C 13.617188 0.800781 14.335938 0.800781 14.578125 0.800781 C 15.058594 0.800781 15.375 0.921875 15.578125 1.121094 C 15.738281 1.320312 15.816406 1.601562 15.777344 1.960938 L 14.175781 11.558594 C 14.136719 11.761719 14.296875 11.960938 14.496094 12 C 14.738281 12.039062 14.9375 11.878906 14.976562 11.679688 L 15.578125 8.199219 C 15.65625 7.839844 15.855469 7.558594 16.175781 7.359375 C 16.496094 7.199219 16.855469 7.160156 17.21875 7.28125 C 17.738281 7.480469 18.058594 8.039062 17.976562 8.640625 L 17.816406 9.761719 C 17.816406 9.800781 17.816406 9.800781 17.816406 9.800781 L 17.535156 11.761719 L 17.535156 11.800781 C 17.496094 12 17.65625 12.199219 17.855469 12.238281 C 18.058594 12.28125 18.257812 12.121094 18.296875 11.917969 L 18.617188 9.917969 C 18.65625 9.558594 18.855469 9.28125 19.175781 9.078125 C 19.496094 8.917969 19.855469 8.878906 20.21875 9 C 20.738281 9.199219 21.058594 9.761719 20.976562 10.320312 Z M 20.976562 10.320312"/>
</svg>

<svg xmlns="http://www.w3.org/2000/svg" width="32" height="32" viewBox="0 0 24 24">
    <path d="M20.54 8.281c-.602-.242-1.204-.16-1.724.117-.039-.796-.52-1.52-1.277-1.796a1.998 1.998 0 0 0-1.723.16h-.039l.801-4.723c.078-.64-.082-1.117-.402-1.48-.36-.36-.88-.559-1.598-.559-1.043 0-1.762.68-2 1.922l-.8 6-.801-5.442c-.239-1.8-1.36-2.082-2-2.082-.598 0-1.2.243-1.559.641-.36.36-.48.84-.441 1.402l1.039 8.88c-.16-.243-.36-.442-.559-.68l-.039-.04c-1-1.203-2.8-1.722-4.121-1.242-.2.04-.36.16-.559.282-.601.398-.562.918-.562 1.078-.04.242 0 .281.562.922.68.8 2.16 2.48 3.078 4.16.04.078 1.16 1.879 2.403 3.199l.719 2.2a4.084 4.084 0 0 0 3.878 2.8h3.36c1.722 0 3.52-1.441 3.922-3.121.16-.64.32-.879.398-1 .402-.48.883-1.598.883-3.078v-3.602c0-.52.039-1.039.2-1.48l.237-1.2c.122-.96-.398-1.917-1.277-2.238zm.437 2.04l-.239 1.199a7.895 7.895 0 0 0-.16 1.68v3.6c0 1.36-.48 2.24-.723 2.52a2.199 2.199 0 0 0-.144.2c-.125.097-.25.16-.414.242-.16.078-.32.199-.52.316-.199.121-.242.363-.12.563.081.078.198.16.32.16.082 0 .16-.04.242-.082.027-.012.054-.028.078-.04-.281 1.36-1.762 2.52-3.121 2.52h-3.32a3.275 3.275 0 0 1-3.118-2.238l-.355-1.059c.187.145.36.254.555.418a.57.57 0 0 0 .238.078c.12 0 .242-.039.281-.16.16-.16.121-.398-.039-.558a4.504 4.504 0 0 0-.723-.559c-.277-.2-.55-.398-.828-.633-1.191-1.242-2.332-3.09-2.332-3.09-.957-1.718-2.476-3.437-3.2-4.277a4.841 4.841 0 0 0-.358-.441c0-.121 0-.2.199-.32.16-.079.281-.16.402-.2 1-.398 2.438.078 3.238 1l.04.04c.28.32.601.679.921 1l.453.39.387.77c.078.16.2.242.36.242.082 0 .12 0 .16-.082.16-.079.242-.32.16-.52l-.32-.64-1.2-10a.882.882 0 0 1 .239-.758c.203-.243.562-.403.96-.403.442 0 1.04.16 1.2 1.403l1.199 8.277c.043.2.203.36.402.36.2 0 .36-.16.399-.36l1.199-8.8C13.617.8 14.335.8 14.578.8c.48 0 .797.12 1 .32.16.2.238.48.2.84l-1.602 9.598c-.04.203.12.402.32.441a.415.415 0 0 0 .48-.32l.602-3.48c.078-.36.277-.641.598-.84.32-.16.68-.2 1.043-.079.52.2.84.758.758 1.36l-.16 1.12v.04l-.282 1.96v.04c-.039.199.121.398.32.437.204.043.403-.117.442-.32l.32-2c.04-.36.238-.637.559-.84.32-.16.68-.2 1.043-.078.52.2.84.762.758 1.32zm0 0"/>
</svg>
